icons/1_Primary/OVH.svg

<svg xmlns="http://www.w3.org/2000/svg" width="1024" height="1024" fill="none">
   <g clip-path="url(#a)">
      <path fill="#54688C" d="M512 1024c282.77 0 512-229.23 512-512S794.77 0 512 0 0 229.23 0 512s229.23 512 512 512Z"/>
      <path fill="#fff" d="m700.2 466.5 61.2-106.3c23.6 41.6 37.2 89.8 37.2 141.1 0 68.8-24.3 131.9-64.7 181.4H575.8l48.7-84.6h-64.4l75.8-131.7 64.3.1Zm-55.4-125.2L448.3 682.5l.1.2H290.1c-40.5-49.5-64.7-112.6-64.7-181.4 0-51.4 13.6-99.6 37.3-141.3l102.5 178.2 113.3-197h166.3v.1Z"/>
   </g>
   <defs>
      <clipPath id="a">
         <path fill="#fff" d="M0 0h1024v1024H0z"/>
      </clipPath>
   </defs>
</svg>

<svg width="1024" height="1024" viewBox="0 0 1024 1024" fill="none" xmlns="http://www.w3.org/2000/svg">
<g clip-path="url(#clip0_2_3069)">
<path d="M512 1024C794.77 1024 1024 794.77 1024 512C1024 229.23 794.77 0 512 0C229.23 0 0 229.23 0 512C0 794.77 229.23 1024 512 1024Z" fill="#54688C"/>
<path d="M700.2 466.5L761.4 360.2C785 401.8 798.6 450 798.6 501.3C798.6 570.1 774.3 633.2 733.9 682.7H575.8L624.5 598.1H560.1L635.9 466.4L700.2 466.5ZM644.8 341.3L448.3 682.5L448.4 682.7H290.1C249.6 633.2 225.4 570.1 225.4 501.3C225.4 449.9 239 401.7 262.7 360L365.2 538.2L478.5 341.2H644.8V341.3Z" fill="white"/>
</g>
<defs>
<clipPath id="clip0_2_3069">
<rect width="1024" height="1024" fill="white"/>
</clipPath>
</defs>
</svg>
